(Generated with: DXF2GCODE, Version: Py3.6.7 PyQt5.11.3, Date: $Date: Thu Jan 3 16:29:29 2019 +0100 $)
(Created from file: C:/Users/Jordan Foster/Desktop/drawing.dxf)
(Output format description: G-CODE for LinuxCNC)
(Time: Tue Apr  9 16:13:43 2019)
G21 (Units in millimeters)
G90 (Absolute programming)
G64 (Default cutting) G17 (XY plane) G40 (Cancel radius comp.) G49 (Cancel length comp.)
G0 Z  15.000 

(*** LAYER: Layer_1 ***)
T1 M6
S6000

(* SHAPE Nr: 0 *)
G0 X  28.644 Y 177.857
M3 M8
G0 Z   3.000 
F150
G1 Z  -1.500
F400
G1 X  28.644 Y 199.669
G1 X  31.544 Y 199.669
G1 X  31.544 Y 191.114
G1 X  42.428 Y 191.114
G1 X  42.428 Y 199.669
G1 X  45.329 Y 199.669
G1 X  45.329 Y 177.857
G1 X  42.428 Y 177.857
G1 X  42.428 Y 188.536
G1 X  31.544 Y 188.536
G1 X  31.544 Y 177.857
G1 X  28.644 Y 177.857
F150
G1 Z  -3.000
F400
G1 X  28.644 Y 199.669
G1 X  31.544 Y 199.669
G1 X  31.544 Y 191.114
G1 X  42.428 Y 191.114
G1 X  42.428 Y 199.669
G1 X  45.329 Y 199.669
G1 X  45.329 Y 177.857
G1 X  42.428 Y 177.857
G1 X  42.428 Y 188.536
G1 X  31.544 Y 188.536
G1 X  31.544 Y 177.857
G1 X  28.644 Y 177.857
F150
G1 Z   3.000
G0 Z  15.000 
M9 M5

(* SHAPE Nr: 1 *)
G0 X  68.883 Y 177.857
M3 M8
G0 Z   3.000 
G1 Z  -1.500
F400
G1 X  68.883 Y 200.650
G1 X  71.637 Y 200.650
G1 X  71.637 Y 177.857
G1 X  68.883 Y 177.857
F150
G1 Z  -3.000
F400
G1 X  68.883 Y 200.650
G1 X  71.637 Y 200.650
G1 X  71.637 Y 177.857
G1 X  68.883 Y 177.857
F150
G1 Z   3.000
G0 Z  15.000 
M9 M5

(* SHAPE Nr: 2 *)
G0 X  77.145 Y 177.857
M3 M8
G0 Z   3.000 
G1 Z  -1.500
F400
G1 X  77.145 Y 200.650
G1 X  79.899 Y 200.650
G1 X  79.899 Y 177.857
G1 X  77.145 Y 177.857
F150
G1 Z  -3.000
F400
G1 X  77.145 Y 200.650
G1 X  79.899 Y 200.650
G1 X  79.899 Y 177.857
G1 X  77.145 Y 177.857
F150
G1 Z   3.000
G0 Z  15.000 
M9 M5

(* SHAPE Nr: 3 *)
G0 X 118.556 Y 177.857
M3 M8
G0 Z   3.000 
G1 Z  -1.500
F400
G1 X 112.785 Y 199.669
G1 X 115.758 Y 199.669
G1 X 120.343 Y 181.534
G1 X 124.855 Y 199.669
G1 X 127.799 Y 199.669
G1 X 132.355 Y 181.358
G1 X 136.911 Y 199.669
G1 X 139.752 Y 199.669
G1 X 134.083 Y 177.857
G1 X 130.817 Y 177.857
G1 X 126.232 Y 195.963
G1 X 121.749 Y 177.857
G1 X 118.556 Y 177.857
F150
G1 Z  -3.000
F400
G1 X 112.785 Y 199.669
G1 X 115.758 Y 199.669
G1 X 120.343 Y 181.534
G1 X 124.855 Y 199.669
G1 X 127.799 Y 199.669
G1 X 132.355 Y 181.358
G1 X 136.911 Y 199.669
G1 X 139.752 Y 199.669
G1 X 134.083 Y 177.857
G1 X 130.817 Y 177.857
G1 X 126.232 Y 195.963
G1 X 121.749 Y 177.857
G1 X 118.556 Y 177.857
F150
G1 Z   3.000
G0 Z  15.000 
M9 M5

(* SHAPE Nr: 4 *)
G0 X 173.414 Y 177.857
M3 M8
G0 Z   3.000 
G1 Z  -1.500
F400
G1 X 173.414 Y 200.650
G1 X 176.168 Y 200.650
G1 X 176.168 Y 177.857
G1 X 173.414 Y 177.857
F150
G1 Z  -3.000
F400
G1 X 173.414 Y 200.650
G1 X 176.168 Y 200.650
G1 X 176.168 Y 177.857
G1 X 173.414 Y 177.857
F150
G1 Z   3.000
G0 Z  15.000 
M9 M5

(* SHAPE Nr: 5 *)
G0 X  55.708 Y 177.776
M3 M8
G0 Z   3.000 
G1 Z  -1.500
F400
G2 X  54.329 Y 178.223 I   1.983 J   8.462
G2 X  53.232 Y 178.795 I   2.879 J   6.863
G2 X  52.321 Y 179.479 I   3.766 J   5.958
G2 X  52.111 Y 179.674 I   4.709 J   5.310
G2 X  51.822 Y 179.970 I   4.790 J   4.949
G2 X  50.906 Y 181.237 I   5.003 J   4.583
G2 X  50.291 Y 182.659 I   6.618 J   3.708
G2 X  49.954 Y 184.128 I   8.930 J   2.822
G2 X  49.834 Y 185.448 I  11.975 J   1.748
G2 X  49.826 Y 185.943 I  13.980 J   0.496
G2 X  49.890 Y 187.272 I  13.652 J  -0.000
G2 X  50.149 Y 188.785 I  10.664 J  -1.043
G2 X  50.654 Y 190.259 I   8.481 J  -2.084
G2 X  51.199 Y 191.269 I   6.980 J  -3.113
G2 X  51.768 Y 192.042 I   6.287 J  -4.029
G2 X  52.008 Y 192.315 I   5.774 J  -4.848
G2 X  52.808 Y 193.059 I   5.570 J  -5.190
G2 X  54.705 Y 194.145 I   4.373 J  -5.438
G2 X  56.219 Y 194.550 I   2.757 J  -7.267
G2 X  57.457 Y 194.669 I   1.528 J  -9.427
G2 X  57.780 Y 194.674 I   0.323 J -10.634
G2 X  58.872 Y 194.616 I  -0.000 J -10.388
G2 X  60.098 Y 194.388 I  -0.834 J  -7.885
G2 X  61.289 Y 193.935 I  -1.646 J  -6.119
G2 X  62.029 Y 193.489 I  -2.479 J  -4.950
G2 X  62.568 Y 193.050 I  -3.195 J  -4.471
G2 X  62.877 Y 192.740 I  -3.828 J  -4.133
G2 X  62.913 Y 192.701 I  -4.211 J  -3.924
G2 X  63.538 Y 191.881 I  -4.246 J  -3.884
G2 X  64.142 Y 190.648 I  -5.477 J  -3.445
G2 X  64.503 Y 189.313 I  -7.650 J  -2.784
G2 X  64.657 Y 188.008 I -10.626 J  -1.922
G2 X  64.679 Y 187.247 I -13.307 J  -0.761
G1 X  64.679 Y 185.753
G1 X  52.623 Y 185.753
G3 X  52.679 Y 184.751 I   9.099 J   0.000
G3 X  52.889 Y 183.669 I   6.704 J   0.742
G3 X  53.051 Y 183.182 I   5.188 J   1.458
G3 X  53.078 Y 183.116 I   4.902 J   1.897
G3 X  53.472 Y 182.327 I   5.355 J   2.184
G3 X  53.989 Y 181.622 I   4.038 J   2.420
G3 X  54.323 Y 181.285 I   3.287 J   2.917
G3 X  54.453 Y 181.169 I   3.251 J   3.522
G3 X  55.298 Y 180.589 I   3.103 J   3.617
G3 X  56.124 Y 180.230 I   2.549 J   4.739
G3 X  56.698 Y 180.069 I   1.964 J   5.891
G3 X  57.854 Y 179.898 I   1.654 J   7.204
G3 X  58.439 Y 179.879 I   0.585 J   8.650
G3 X  59.627 Y 179.962 I  -0.000 J   8.462
G3 X  61.139 Y 180.307 I  -1.315 J   9.275
G3 X  61.793 Y 180.538 I  -3.156 J   9.968
G3 X  62.717 Y 180.937 I  -6.193 J  15.618
G3 X  63.506 Y 181.352 I  -3.957 J   8.461
G3 X  64.049 Y 181.721 I  -2.614 J   4.432
G3 X  64.210 Y 181.856 I  -1.816 J   2.337
G1 X  64.357 Y 181.856
G1 X  64.357 Y 178.853
G2 X  63.298 Y 178.438 I  -8.880 J  21.090
G2 X  61.853 Y 177.967 I  -7.743 J  21.290
G2 X  61.515 Y 177.872 I  -6.305 J  21.784
G2 X  60.437 Y 177.636 I  -2.831 J  10.380
G2 X  58.763 Y 177.480 I  -1.950 J  11.809
G2 X  58.468 Y 177.476 I  -0.295 J  12.777
G2 X  57.186 Y 177.535 I   0.000 J  13.942
G2 X  55.708 Y 177.776 I   0.998 J  10.806
F150
G1 Z  -3.000
F400
G2 X  54.329 Y 178.223 I   1.983 J   8.462
G2 X  53.232 Y 178.795 I   2.879 J   6.863
G2 X  52.321 Y 179.479 I   3.766 J   5.958
G2 X  52.111 Y 179.674 I   4.709 J   5.310
G2 X  51.822 Y 179.970 I   4.790 J   4.949
G2 X  50.906 Y 181.237 I   5.003 J   4.583
G2 X  50.291 Y 182.659 I   6.618 J   3.708
G2 X  49.954 Y 184.128 I   8.930 J   2.822
G2 X  49.834 Y 185.448 I  11.975 J   1.748
G2 X  49.826 Y 185.943 I  13.980 J   0.496
G2 X  49.890 Y 187.272 I  13.652 J  -0.000
G2 X  50.149 Y 188.785 I  10.664 J  -1.043
G2 X  50.654 Y 190.259 I   8.481 J  -2.084
G2 X  51.199 Y 191.269 I   6.980 J  -3.113
G2 X  51.768 Y 192.042 I   6.287 J  -4.029
G2 X  52.008 Y 192.315 I   5.774 J  -4.848
G2 X  52.808 Y 193.059 I   5.570 J  -5.190
G2 X  54.705 Y 194.145 I   4.373 J  -5.438
G2 X  56.219 Y 194.550 I   2.757 J  -7.267
G2 X  57.457 Y 194.669 I   1.528 J  -9.427
G2 X  57.780 Y 194.674 I   0.323 J -10.634
G2 X  58.872 Y 194.616 I  -0.000 J -10.388
G2 X  60.098 Y 194.388 I  -0.834 J  -7.885
G2 X  61.289 Y 193.935 I  -1.646 J  -6.119
G2 X  62.029 Y 193.489 I  -2.479 J  -4.950
G2 X  62.568 Y 193.050 I  -3.195 J  -4.471
G2 X  62.877 Y 192.740 I  -3.828 J  -4.133
G2 X  62.913 Y 192.701 I  -4.211 J  -3.924
G2 X  63.538 Y 191.881 I  -4.246 J  -3.884
G2 X  64.142 Y 190.648 I  -5.477 J  -3.445
G2 X  64.503 Y 189.313 I  -7.650 J  -2.784
G2 X  64.657 Y 188.008 I -10.626 J  -1.922
G2 X  64.679 Y 187.247 I -13.307 J  -0.761
G1 X  64.679 Y 185.753
G1 X  52.623 Y 185.753
G3 X  52.679 Y 184.751 I   9.099 J   0.000
G3 X  52.889 Y 183.669 I   6.704 J   0.742
G3 X  53.051 Y 183.182 I   5.188 J   1.458
G3 X  53.078 Y 183.116 I   4.902 J   1.897
G3 X  53.472 Y 182.327 I   5.355 J   2.184
G3 X  53.989 Y 181.622 I   4.038 J   2.420
G3 X  54.323 Y 181.285 I   3.287 J   2.917
G3 X  54.453 Y 181.169 I   3.251 J   3.522
G3 X  55.298 Y 180.589 I   3.103 J   3.617
G3 X  56.124 Y 180.230 I   2.549 J   4.739
G3 X  56.698 Y 180.069 I   1.964 J   5.891
G3 X  57.854 Y 179.898 I   1.654 J   7.204
G3 X  58.439 Y 179.879 I   0.585 J   8.650
G3 X  59.627 Y 179.962 I  -0.000 J   8.462
G3 X  61.139 Y 180.307 I  -1.315 J   9.275
G3 X  61.793 Y 180.538 I  -3.156 J   9.968
G3 X  62.717 Y 180.937 I  -6.193 J  15.618
G3 X  63.506 Y 181.352 I  -3.957 J   8.461
G3 X  64.049 Y 181.721 I  -2.614 J   4.432
G3 X  64.210 Y 181.856 I  -1.816 J   2.337
G1 X  64.357 Y 181.856
G1 X  64.357 Y 178.853
G2 X  63.298 Y 178.438 I  -8.880 J  21.090
G2 X  61.853 Y 177.967 I  -7.743 J  21.290
G2 X  61.515 Y 177.872 I  -6.305 J  21.784
G2 X  60.437 Y 177.636 I  -2.831 J  10.380
G2 X  58.763 Y 177.480 I  -1.950 J  11.809
G2 X  58.468 Y 177.476 I  -0.295 J  12.777
G2 X  57.186 Y 177.535 I   0.000 J  13.942
G2 X  55.708 Y 177.776 I   0.998 J  10.806
F150
G1 Z   3.000
G0 Z  15.000 
M9 M5

(* SHAPE Nr: 6 *)
G0 X  52.623 Y 187.862
M3 M8
G0 Z   3.000 
G1 Z  -1.500
F400
G2 X  52.663 Y 188.197 I   6.208 J  -0.564
G2 X  52.898 Y 189.175 I   5.496 J  -0.801
G2 X  53.634 Y 190.562 I   4.616 J  -1.561
G2 X  54.103 Y 191.099 I   4.192 J  -3.185
G2 X  54.387 Y 191.356 I   3.059 J  -3.094
G2 X  55.052 Y 191.807 I   2.688 J  -3.244
G2 X  55.743 Y 192.111 I   2.099 J  -3.836
G2 X  56.746 Y 192.345 I   1.679 J  -4.936
G2 X  57.633 Y 192.403 I   0.887 J  -6.786
G2 X  57.717 Y 192.403 I  -0.000 J  -8.057
G2 X  58.544 Y 192.345 I  -0.074 J  -7.061
G2 X  59.436 Y 192.145 I  -0.627 J  -4.874
G2 X  60.234 Y 191.774 I  -1.125 J  -3.463
G2 X  60.823 Y 191.299 I  -1.637 J  -2.631
G2 X  60.900 Y 191.217 I  -2.239 J  -2.170
G2 X  61.038 Y 191.056 I  -2.628 J  -2.401
G2 X  61.388 Y 190.538 I  -2.804 J  -2.270
G2 X  61.749 Y 189.678 I  -3.741 J  -2.079
G2 X  61.943 Y 188.743 I  -5.403 J  -1.605
G2 X  61.998 Y 187.862 I  -7.798 J  -0.935
G1 X  52.623 Y 187.862
F150
G1 Z  -3.000
F400
G2 X  52.663 Y 188.197 I   6.208 J  -0.564
G2 X  52.898 Y 189.175 I   5.496 J  -0.801
G2 X  53.634 Y 190.562 I   4.616 J  -1.561
G2 X  54.103 Y 191.099 I   4.192 J  -3.185
G2 X  54.387 Y 191.356 I   3.059 J  -3.094
G2 X  55.052 Y 191.807 I   2.688 J  -3.244
G2 X  55.743 Y 192.111 I   2.099 J  -3.836
G2 X  56.746 Y 192.345 I   1.679 J  -4.936
G2 X  57.633 Y 192.403 I   0.887 J  -6.786
G2 X  57.717 Y 192.403 I  -0.000 J  -8.057
G2 X  58.544 Y 192.345 I  -0.074 J  -7.061
G2 X  59.436 Y 192.145 I  -0.627 J  -4.874
G2 X  60.234 Y 191.774 I  -1.125 J  -3.463
G2 X  60.823 Y 191.299 I  -1.637 J  -2.631
G2 X  60.900 Y 191.217 I  -2.239 J  -2.170
G2 X  61.038 Y 191.056 I  -2.628 J  -2.401
G2 X  61.388 Y 190.538 I  -2.804 J  -2.270
G2 X  61.749 Y 189.678 I  -3.741 J  -2.079
G2 X  61.943 Y 188.743 I  -5.403 J  -1.605
G2 X  61.998 Y 187.862 I  -7.798 J  -0.935
G1 X  52.623 Y 187.862
F150
G1 Z   3.000
G0 Z  15.000 
M9 M5

(* SHAPE Nr: 7 *)
G0 X  88.295 Y 178.149
M3 M8
G0 Z   3.000 
G1 Z  -1.500
F400
G2 X  86.985 Y 179.006 I   2.848 J   5.784
G2 X  86.256 Y 179.717 I   4.545 J   5.385
G2 X  86.199 Y 179.783 I   5.400 J   4.751
G2 X  85.432 Y 180.865 I   5.452 J   4.681
G2 X  84.763 Y 182.350 I   6.936 J   4.013
G2 X  84.386 Y 183.888 I   9.376 J   3.117
G2 X  84.238 Y 185.296 I  12.515 J   2.027
G2 X  84.220 Y 186.031 I  15.042 J   0.735
G2 X  84.284 Y 187.392 I  14.463 J  -0.000
G2 X  84.534 Y 188.910 I  11.117 J  -1.051
G2 X  84.997 Y 190.327 I   8.695 J  -2.055
G2 X  85.596 Y 191.467 I   7.013 J  -2.958
G2 X  86.193 Y 192.272 I   6.055 J  -3.869
G2 X  86.256 Y 192.344 I   5.463 J  -4.678
G2 X  87.001 Y 193.074 I   5.302 J  -4.668
G2 X  88.774 Y 194.137 I   4.154 J  -4.920
G2 X  90.205 Y 194.541 I   2.663 J  -6.693
G2 X  91.410 Y 194.667 I   1.531 J  -8.818
G2 X  91.779 Y 194.674 I   0.368 J -10.109
G2 X  92.927 Y 194.603 I  -0.000 J  -9.434
G2 X  94.299 Y 194.304 I  -0.920 J  -7.507
G2 X  95.235 Y 193.925 I  -1.995 J  -6.270
G2 X  96.500 Y 193.097 I  -2.867 J  -5.764
G2 X  97.272 Y 192.344 I  -4.560 J  -5.447
G2 X  97.350 Y 192.255 I  -5.394 J  -4.780
G2 X  98.116 Y 191.174 I  -5.464 J  -4.683
G2 X  98.777 Y 189.708 I  -6.920 J  -4.001
G2 X  99.156 Y 188.173 I  -9.317 J  -3.115
G2 X  99.305 Y 186.766 I -12.427 J  -2.026
G2 X  99.323 Y 186.031 I -14.935 J  -0.735
G2 X  99.258 Y 184.670 I -14.360 J   0.000
G2 X  99.007 Y 183.153 I -11.044 J   1.051
G2 X  98.541 Y 181.738 I  -8.649 J   2.058
G2 X  97.949 Y 180.614 I  -6.993 J   2.968
G2 X  97.351 Y 179.808 I  -6.064 J   3.876
G2 X  97.272 Y 179.717 I  -5.473 J   4.689
G2 X  96.514 Y 178.981 I  -5.304 J   4.699
G2 X  94.717 Y 177.919 I  -4.135 J   4.945
G2 X  93.279 Y 177.524 I  -2.619 J   6.728
G2 X  92.090 Y 177.408 I  -1.467 J   8.847
G2 X  91.779 Y 177.403 I  -0.311 J  10.042
G2 X  90.619 Y 177.473 I   0.000 J   9.643
G2 X  89.267 Y 177.762 I   0.926 J   7.642
G2 X  88.295 Y 178.149 I   1.971 J   6.361
F150
G1 Z  -3.000
F400
G2 X  86.985 Y 179.006 I   2.848 J   5.784
G2 X  86.256 Y 179.717 I   4.545 J   5.385
G2 X  86.199 Y 179.783 I   5.400 J   4.751
G2 X  85.432 Y 180.865 I   5.452 J   4.681
G2 X  84.763 Y 182.350 I   6.936 J   4.013
G2 X  84.386 Y 183.888 I   9.376 J   3.117
G2 X  84.238 Y 185.296 I  12.515 J   2.027
G2 X  84.220 Y 186.031 I  15.042 J   0.735
G2 X  84.284 Y 187.392 I  14.463 J  -0.000
G2 X  84.534 Y 188.910 I  11.117 J  -1.051
G2 X  84.997 Y 190.327 I   8.695 J  -2.055
G2 X  85.596 Y 191.467 I   7.013 J  -2.958
G2 X  86.193 Y 192.272 I   6.055 J  -3.869
G2 X  86.256 Y 192.344 I   5.463 J  -4.678
G2 X  87.001 Y 193.074 I   5.302 J  -4.668
G2 X  88.774 Y 194.137 I   4.154 J  -4.920
G2 X  90.205 Y 194.541 I   2.663 J  -6.693
G2 X  91.410 Y 194.667 I   1.531 J  -8.818
G2 X  91.779 Y 194.674 I   0.368 J -10.109
G2 X  92.927 Y 194.603 I  -0.000 J  -9.434
G2 X  94.299 Y 194.304 I  -0.920 J  -7.507
G2 X  95.235 Y 193.925 I  -1.995 J  -6.270
G2 X  96.500 Y 193.097 I  -2.867 J  -5.764
G2 X  97.272 Y 192.344 I  -4.560 J  -5.447
G2 X  97.350 Y 192.255 I  -5.394 J  -4.780
G2 X  98.116 Y 191.174 I  -5.464 J  -4.683
G2 X  98.777 Y 189.708 I  -6.920 J  -4.001
G2 X  99.156 Y 188.173 I  -9.317 J  -3.115
G2 X  99.305 Y 186.766 I -12.427 J  -2.026
G2 X  99.323 Y 186.031 I -14.935 J  -0.735
G2 X  99.258 Y 184.670 I -14.360 J   0.000
G2 X  99.007 Y 183.153 I -11.044 J   1.051
G2 X  98.541 Y 181.738 I  -8.649 J   2.058
G2 X  97.949 Y 180.614 I  -6.993 J   2.968
G2 X  97.351 Y 179.808 I  -6.064 J   3.876
G2 X  97.272 Y 179.717 I  -5.473 J   4.689
G2 X  96.514 Y 178.981 I  -5.304 J   4.699
G2 X  94.717 Y 177.919 I  -4.135 J   4.945
G2 X  93.279 Y 177.524 I  -2.619 J   6.728
G2 X  92.090 Y 177.408 I  -1.467 J   8.847
G2 X  91.779 Y 177.403 I  -0.311 J  10.042
G2 X  90.619 Y 177.473 I   0.000 J   9.643
G2 X  89.267 Y 177.762 I   0.926 J   7.642
G2 X  88.295 Y 178.149 I   1.971 J   6.361
F150
G1 Z   3.000
G0 Z  15.000 
M9 M5

(* SHAPE Nr: 8 *)
G0 X  90.029 Y 180.076
M3 M8
G0 Z   3.000 
G1 Z  -1.500
F400
G2 X  88.812 Y 180.818 I   1.360 J   3.598
G2 X  88.307 Y 181.358 I   2.920 J   3.236
G2 X  88.258 Y 181.422 I   3.425 J   2.671
G2 X  87.982 Y 181.837 I   3.549 J   2.664
G2 X  87.562 Y 182.727 I   4.675 J   2.747
G2 X  87.278 Y 183.729 I   6.719 J   2.450
G2 X  87.109 Y 184.898 I   9.563 J   1.977
G2 X  87.062 Y 186.031 I  13.644 J   1.133
G2 X  87.062 Y 186.153 I  16.258 J  -0.000
G2 X  87.119 Y 187.315 I  14.254 J  -0.107
G2 X  87.306 Y 188.535 I   9.719 J  -0.869
G2 X  87.618 Y 189.563 I   6.625 J  -1.452
G2 X  88.054 Y 190.416 I   4.551 J  -1.788
G2 X  88.292 Y 190.748 I   3.298 J  -2.116
G2 X  88.759 Y 191.244 I   3.353 J  -2.689
G2 X  89.421 Y 191.726 I   2.591 J  -2.859
G2 X  90.021 Y 192.007 I   1.944 J  -3.366
G2 X  90.979 Y 192.246 I   1.574 J  -4.271
G2 X  91.779 Y 192.301 I   0.800 J  -5.860
G2 X  92.550 Y 192.249 I  -0.000 J  -5.795
G2 X  93.536 Y 192.000 I  -0.596 J  -4.435
G2 X  94.745 Y 191.266 I  -1.362 J  -3.607
G2 X  95.236 Y 190.748 I  -2.891 J  -3.231
G2 X  95.328 Y 190.629 I  -3.052 J  -2.470
G2 X  95.621 Y 190.179 I  -3.342 J  -2.500
G2 X  96.002 Y 189.341 I  -4.601 J  -2.595
G2 X  96.271 Y 188.363 I  -6.759 J  -2.382
G2 X  96.436 Y 187.175 I  -9.929 J  -1.985
G2 X  96.481 Y 186.031 I -14.490 J  -1.145
G2 X  96.440 Y 184.968 I -13.908 J   0.000
G2 X  96.266 Y 183.729 I  -9.908 J   0.760
G2 X  95.949 Y 182.641 I  -6.876 J   1.412
G2 X  95.487 Y 181.717 I  -4.832 J   1.842
G2 X  95.221 Y 181.343 I  -3.580 J   2.266
G2 X  94.706 Y 180.799 I  -3.427 J   2.722
G2 X  93.515 Y 180.075 I  -2.560 J   2.872
G2 X  92.592 Y 179.835 I  -1.554 J   4.084
G2 X  91.779 Y 179.776 I  -0.814 J   5.569
G2 X  91.005 Y 179.828 I   0.000 J   5.761
G2 X  90.029 Y 180.076 I   0.598 J   4.410
F150
G1 Z  -3.000
F400
G2 X  88.812 Y 180.818 I   1.360 J   3.598
G2 X  88.307 Y 181.358 I   2.920 J   3.236
G2 X  88.258 Y 181.422 I   3.425 J   2.671
G2 X  87.982 Y 181.837 I   3.549 J   2.664
G2 X  87.562 Y 182.727 I   4.675 J   2.747
G2 X  87.278 Y 183.729 I   6.719 J   2.450
G2 X  87.109 Y 184.898 I   9.563 J   1.977
G2 X  87.062 Y 186.031 I  13.644 J   1.133
G2 X  87.062 Y 186.153 I  16.258 J  -0.000
G2 X  87.119 Y 187.315 I  14.254 J  -0.107
G2 X  87.306 Y 188.535 I   9.719 J  -0.869
G2 X  87.618 Y 189.563 I   6.625 J  -1.452
G2 X  88.054 Y 190.416 I   4.551 J  -1.788
G2 X  88.292 Y 190.748 I   3.298 J  -2.116
G2 X  88.759 Y 191.244 I   3.353 J  -2.689
G2 X  89.421 Y 191.726 I   2.591 J  -2.859
G2 X  90.021 Y 192.007 I   1.944 J  -3.366
G2 X  90.979 Y 192.246 I   1.574 J  -4.271
G2 X  91.779 Y 192.301 I   0.800 J  -5.860
G2 X  92.550 Y 192.249 I  -0.000 J  -5.795
G2 X  93.536 Y 192.000 I  -0.596 J  -4.435
G2 X  94.745 Y 191.266 I  -1.362 J  -3.607
G2 X  95.236 Y 190.748 I  -2.891 J  -3.231
G2 X  95.328 Y 190.629 I  -3.052 J  -2.470
G2 X  95.621 Y 190.179 I  -3.342 J  -2.500
G2 X  96.002 Y 189.341 I  -4.601 J  -2.595
G2 X  96.271 Y 188.363 I  -6.759 J  -2.382
G2 X  96.436 Y 187.175 I  -9.929 J  -1.985
G2 X  96.481 Y 186.031 I -14.490 J  -1.145
G2 X  96.440 Y 184.968 I -13.908 J   0.000
G2 X  96.266 Y 183.729 I  -9.908 J   0.760
G2 X  95.949 Y 182.641 I  -6.876 J   1.412
G2 X  95.487 Y 181.717 I  -4.832 J   1.842
G2 X  95.221 Y 181.343 I  -3.580 J   2.266
G2 X  94.706 Y 180.799 I  -3.427 J   2.722
G2 X  93.515 Y 180.075 I  -2.560 J   2.872
G2 X  92.592 Y 179.835 I  -1.554 J   4.084
G2 X  91.779 Y 179.776 I  -0.814 J   5.569
G2 X  91.005 Y 179.828 I   0.000 J   5.761
G2 X  90.029 Y 180.076 I   0.598 J   4.410
F150
G1 Z   3.000
G0 Z  15.000 
M9 M5

(* SHAPE Nr: 9 *)
G0 X 143.938 Y 179.006
M3 M8
G0 Z   3.000 
G1 Z  -1.500
F400
G2 X 143.209 Y 179.717 I   4.545 J   5.385
G2 X 143.153 Y 179.783 I   5.400 J   4.751
G2 X 142.385 Y 180.865 I   5.452 J   4.681
G2 X 141.717 Y 182.350 I   6.936 J   4.013
G2 X 141.339 Y 183.888 I   9.376 J   3.117
G2 X 141.191 Y 185.296 I  12.515 J   2.027
G2 X 141.173 Y 186.031 I  15.042 J   0.735
G2 X 141.237 Y 187.392 I  14.463 J  -0.000
G2 X 141.487 Y 188.910 I  11.117 J  -1.051
G2 X 141.950 Y 190.327 I   8.695 J  -2.055
G2 X 142.549 Y 191.467 I   7.013 J  -2.958
G2 X 143.146 Y 192.272 I   6.055 J  -3.869
G2 X 143.209 Y 192.344 I   5.463 J  -4.678
G2 X 143.954 Y 193.074 I   5.302 J  -4.668
G2 X 145.728 Y 194.137 I   4.154 J  -4.920
G2 X 147.158 Y 194.541 I   2.663 J  -6.693
G2 X 148.363 Y 194.667 I   1.531 J  -8.818
G2 X 148.732 Y 194.674 I   0.368 J -10.109
G2 X 149.880 Y 194.603 I  -0.000 J  -9.434
G2 X 151.253 Y 194.304 I  -0.920 J  -7.507
G2 X 152.188 Y 193.925 I  -1.995 J  -6.270
G2 X 153.453 Y 193.097 I  -2.867 J  -5.764
G2 X 154.225 Y 192.344 I  -4.560 J  -5.447
G2 X 154.303 Y 192.255 I  -5.394 J  -4.780
G2 X 155.069 Y 191.174 I  -5.464 J  -4.683
G2 X 155.730 Y 189.708 I  -6.920 J  -4.001
G2 X 156.109 Y 188.173 I  -9.317 J  -3.115
G2 X 156.258 Y 186.766 I -12.427 J  -2.026
G2 X 156.276 Y 186.031 I -14.935 J  -0.735
G2 X 156.211 Y 184.670 I -14.360 J   0.000
G2 X 155.960 Y 183.153 I -11.044 J   1.051
G2 X 155.495 Y 181.738 I  -8.649 J   2.058
G2 X 154.903 Y 180.614 I  -6.993 J   2.968
G2 X 154.304 Y 179.808 I  -6.064 J   3.876
G2 X 154.225 Y 179.717 I  -5.473 J   4.689
G2 X 153.467 Y 178.981 I  -5.304 J   4.699
G2 X 151.670 Y 177.919 I  -4.135 J   4.945
G2 X 150.232 Y 177.524 I  -2.619 J   6.728
G2 X 149.043 Y 177.408 I  -1.467 J   8.847
G2 X 148.732 Y 177.403 I  -0.311 J  10.042
G2 X 147.572 Y 177.473 I   0.000 J   9.643
G2 X 146.220 Y 177.762 I   0.926 J   7.642
G2 X 145.248 Y 178.149 I   1.971 J   6.361
G2 X 143.938 Y 179.006 I   2.848 J   5.784
F150
G1 Z  -3.000
F400
G2 X 143.209 Y 179.717 I   4.545 J   5.385
G2 X 143.153 Y 179.783 I   5.400 J   4.751
G2 X 142.385 Y 180.865 I   5.452 J   4.681
G2 X 141.717 Y 182.350 I   6.936 J   4.013
G2 X 141.339 Y 183.888 I   9.376 J   3.117
G2 X 141.191 Y 185.296 I  12.515 J   2.027
G2 X 141.173 Y 186.031 I  15.042 J   0.735
G2 X 141.237 Y 187.392 I  14.463 J  -0.000
G2 X 141.487 Y 188.910 I  11.117 J  -1.051
G2 X 141.950 Y 190.327 I   8.695 J  -2.055
G2 X 142.549 Y 191.467 I   7.013 J  -2.958
G2 X 143.146 Y 192.272 I   6.055 J  -3.869
G2 X 143.209 Y 192.344 I   5.463 J  -4.678
G2 X 143.954 Y 193.074 I   5.302 J  -4.668
G2 X 145.728 Y 194.137 I   4.154 J  -4.920
G2 X 147.158 Y 194.541 I   2.663 J  -6.693
G2 X 148.363 Y 194.667 I   1.531 J  -8.818
G2 X 148.732 Y 194.674 I   0.368 J -10.109
G2 X 149.880 Y 194.603 I  -0.000 J  -9.434
G2 X 151.253 Y 194.304 I  -0.920 J  -7.507
G2 X 152.188 Y 193.925 I  -1.995 J  -6.270
G2 X 153.453 Y 193.097 I  -2.867 J  -5.764
G2 X 154.225 Y 192.344 I  -4.560 J  -5.447
G2 X 154.303 Y 192.255 I  -5.394 J  -4.780
G2 X 155.069 Y 191.174 I  -5.464 J  -4.683
G2 X 155.730 Y 189.708 I  -6.920 J  -4.001
G2 X 156.109 Y 188.173 I  -9.317 J  -3.115
G2 X 156.258 Y 186.766 I -12.427 J  -2.026
G2 X 156.276 Y 186.031 I -14.935 J  -0.735
G2 X 156.211 Y 184.670 I -14.360 J   0.000
G2 X 155.960 Y 183.153 I -11.044 J   1.051
G2 X 155.495 Y 181.738 I  -8.649 J   2.058
G2 X 154.903 Y 180.614 I  -6.993 J   2.968
G2 X 154.304 Y 179.808 I  -6.064 J   3.876
G2 X 154.225 Y 179.717 I  -5.473 J   4.689
G2 X 153.467 Y 178.981 I  -5.304 J   4.699
G2 X 151.670 Y 177.919 I  -4.135 J   4.945
G2 X 150.232 Y 177.524 I  -2.619 J   6.728
G2 X 149.043 Y 177.408 I  -1.467 J   8.847
G2 X 148.732 Y 177.403 I  -0.311 J  10.042
G2 X 147.572 Y 177.473 I   0.000 J   9.643
G2 X 146.220 Y 177.762 I   0.926 J   7.642
G2 X 145.248 Y 178.149 I   1.971 J   6.361
G2 X 143.938 Y 179.006 I   2.848 J   5.784
F150
G1 Z   3.000
G0 Z  15.000 
M9 M5

(* SHAPE Nr: 10 *)
G0 X 145.765 Y 180.818
M3 M8
G0 Z   3.000 
G1 Z  -1.500
F400
G2 X 145.260 Y 181.358 I   2.920 J   3.236
G2 X 145.211 Y 181.422 I   3.425 J   2.671
G2 X 144.935 Y 181.837 I   3.549 J   2.664
G2 X 144.515 Y 182.727 I   4.675 J   2.747
G2 X 144.231 Y 183.729 I   6.719 J   2.450
G2 X 144.062 Y 184.898 I   9.563 J   1.977
G2 X 144.015 Y 186.031 I  13.644 J   1.133
G2 X 144.016 Y 186.153 I  16.258 J  -0.000
G2 X 144.072 Y 187.315 I  14.254 J  -0.107
G2 X 144.259 Y 188.535 I   9.719 J  -0.869
G2 X 144.572 Y 189.563 I   6.625 J  -1.452
G2 X 145.008 Y 190.416 I   4.551 J  -1.788
G2 X 145.246 Y 190.748 I   3.298 J  -2.116
G2 X 145.712 Y 191.244 I   3.353 J  -2.689
G2 X 146.374 Y 191.726 I   2.591 J  -2.859
G2 X 146.974 Y 192.007 I   1.944 J  -3.366
G2 X 147.932 Y 192.246 I   1.574 J  -4.271
G2 X 148.732 Y 192.301 I   0.800 J  -5.860
G2 X 149.503 Y 192.249 I  -0.000 J  -5.795
G2 X 150.489 Y 192.000 I  -0.596 J  -4.435
G2 X 151.698 Y 191.266 I  -1.362 J  -3.607
G2 X 152.189 Y 190.748 I  -2.891 J  -3.231
G2 X 152.281 Y 190.629 I  -3.052 J  -2.470
G2 X 152.575 Y 190.179 I  -3.342 J  -2.500
G2 X 152.955 Y 189.341 I  -4.601 J  -2.595
G2 X 153.224 Y 188.363 I  -6.759 J  -2.382
G2 X 153.389 Y 187.175 I  -9.929 J  -1.985
G2 X 153.434 Y 186.031 I -14.490 J  -1.145
G2 X 153.393 Y 184.968 I -13.908 J   0.000
G2 X 153.219 Y 183.729 I  -9.908 J   0.760
G2 X 152.902 Y 182.641 I  -6.876 J   1.412
G2 X 152.440 Y 181.717 I  -4.832 J   1.842
G2 X 152.174 Y 181.343 I  -3.580 J   2.266
G2 X 151.659 Y 180.799 I  -3.427 J   2.722
G2 X 150.468 Y 180.075 I  -2.560 J   2.872
G2 X 149.546 Y 179.835 I  -1.554 J   4.084
G2 X 148.732 Y 179.776 I  -0.814 J   5.569
G2 X 147.958 Y 179.828 I   0.000 J   5.761
G2 X 146.982 Y 180.076 I   0.598 J   4.410
G2 X 145.765 Y 180.818 I   1.360 J   3.598
F150
G1 Z  -3.000
F400
G2 X 145.260 Y 181.358 I   2.920 J   3.236
G2 X 145.211 Y 181.422 I   3.425 J   2.671
G2 X 144.935 Y 181.837 I   3.549 J   2.664
G2 X 144.515 Y 182.727 I   4.675 J   2.747
G2 X 144.231 Y 183.729 I   6.719 J   2.450
G2 X 144.062 Y 184.898 I   9.563 J   1.977
G2 X 144.015 Y 186.031 I  13.644 J   1.133
G2 X 144.016 Y 186.153 I  16.258 J  -0.000
G2 X 144.072 Y 187.315 I  14.254 J  -0.107
G2 X 144.259 Y 188.535 I   9.719 J  -0.869
G2 X 144.572 Y 189.563 I   6.625 J  -1.452
G2 X 145.008 Y 190.416 I   4.551 J  -1.788
G2 X 145.246 Y 190.748 I   3.298 J  -2.116
G2 X 145.712 Y 191.244 I   3.353 J  -2.689
G2 X 146.374 Y 191.726 I   2.591 J  -2.859
G2 X 146.974 Y 192.007 I   1.944 J  -3.366
G2 X 147.932 Y 192.246 I   1.574 J  -4.271
G2 X 148.732 Y 192.301 I   0.800 J  -5.860
G2 X 149.503 Y 192.249 I  -0.000 J  -5.795
G2 X 150.489 Y 192.000 I  -0.596 J  -4.435
G2 X 151.698 Y 191.266 I  -1.362 J  -3.607
G2 X 152.189 Y 190.748 I  -2.891 J  -3.231
G2 X 152.281 Y 190.629 I  -3.052 J  -2.470
G2 X 152.575 Y 190.179 I  -3.342 J  -2.500
G2 X 152.955 Y 189.341 I  -4.601 J  -2.595
G2 X 153.224 Y 188.363 I  -6.759 J  -2.382
G2 X 153.389 Y 187.175 I  -9.929 J  -1.985
G2 X 153.434 Y 186.031 I -14.490 J  -1.145
G2 X 153.393 Y 184.968 I -13.908 J   0.000
G2 X 153.219 Y 183.729 I  -9.908 J   0.760
G2 X 152.902 Y 182.641 I  -6.876 J   1.412
G2 X 152.440 Y 181.717 I  -4.832 J   1.842
G2 X 152.174 Y 181.343 I  -3.580 J   2.266
G2 X 151.659 Y 180.799 I  -3.427 J   2.722
G2 X 150.468 Y 180.075 I  -2.560 J   2.872
G2 X 149.546 Y 179.835 I  -1.554 J   4.084
G2 X 148.732 Y 179.776 I  -0.814 J   5.569
G2 X 147.958 Y 179.828 I   0.000 J   5.761
G2 X 146.982 Y 180.076 I   0.598 J   4.410
G2 X 145.765 Y 180.818 I   1.360 J   3.598
F150
G1 Z   3.000
G0 Z  15.000 
M9 M5

(* SHAPE Nr: 11 *)
G0 X 160.553 Y 177.857
M3 M8
G0 Z   3.000 
G1 Z  -1.500
F400
G1 X 160.553 Y 194.220
G1 X 163.307 Y 194.220
G1 X 163.307 Y 191.803
G2 X 164.322 Y 192.570 I  13.512 J -16.815
G2 X 165.340 Y 193.227 I   7.840 J -11.031
G2 X 165.984 Y 193.568 I   4.400 J  -7.538
G2 X 166.193 Y 193.663 I   2.880 J  -6.040
G2 X 167.250 Y 194.029 I   2.749 J  -6.220
G2 X 168.536 Y 194.216 I   1.505 J  -5.861
G2 X 168.756 Y 194.220 I   0.220 J  -6.086
G2 X 169.433 Y 194.205 I  -0.000 J -16.264
G2 X 169.730 Y 194.184 I  -0.195 J  -4.679
G2 X 169.796 Y 194.176 I  -0.232 J  -2.196
G2 X 169.947 Y 194.160 I  -0.433 J  -4.784
G2 X 170.642 Y 194.063 I  -2.609 J -21.299
G2 X 170.763 Y 194.044 I  -5.713 J -36.663
G1 X 170.763 Y 191.217
G1 X 170.617 Y 191.217
G3 X 169.816 Y 191.372 I  -2.227 J  -9.349
G3 X 169.415 Y 191.422 I  -1.219 J  -8.121
G3 X 169.122 Y 191.453 I  -0.842 J  -6.576
G3 X 168.295 Y 191.493 I  -1.007 J -12.129
G3 X 168.053 Y 191.495 I  -0.242 J -16.346
G3 X 167.630 Y 191.479 I   0.000 J  -5.621
G3 X 166.402 Y 191.243 I   0.414 J  -5.475
G3 X 165.592 Y 190.924 I   1.795 J  -5.730
G3 X 164.836 Y 190.529 I   4.264 J  -9.089
G3 X 163.570 Y 189.682 I   5.760 J  -9.975
G3 X 163.307 Y 189.473 I   7.626 J  -9.907
G1 X 163.307 Y 177.857
G1 X 160.553 Y 177.857
F150
G1 Z  -3.000
F400
G1 X 160.553 Y 194.220
G1 X 163.307 Y 194.220
G1 X 163.307 Y 191.803
G2 X 164.322 Y 192.570 I  13.512 J -16.815
G2 X 165.340 Y 193.227 I   7.840 J -11.031
G2 X 165.984 Y 193.568 I   4.400 J  -7.538
G2 X 166.193 Y 193.663 I   2.880 J  -6.040
G2 X 167.250 Y 194.029 I   2.749 J  -6.220
G2 X 168.536 Y 194.216 I   1.505 J  -5.861
G2 X 168.756 Y 194.220 I   0.220 J  -6.086
G2 X 169.433 Y 194.205 I  -0.000 J -16.264
G2 X 169.730 Y 194.184 I  -0.195 J  -4.679
G2 X 169.796 Y 194.176 I  -0.232 J  -2.196
G2 X 169.947 Y 194.160 I  -0.433 J  -4.784
G2 X 170.642 Y 194.063 I  -2.609 J -21.299
G2 X 170.763 Y 194.044 I  -5.713 J -36.663
G1 X 170.763 Y 191.217
G1 X 170.617 Y 191.217
G3 X 169.816 Y 191.372 I  -2.227 J  -9.349
G3 X 169.415 Y 191.422 I  -1.219 J  -8.121
G3 X 169.122 Y 191.453 I  -0.842 J  -6.576
G3 X 168.295 Y 191.493 I  -1.007 J -12.129
G3 X 168.053 Y 191.495 I  -0.242 J -16.346
G3 X 167.630 Y 191.479 I   0.000 J  -5.621
G3 X 166.402 Y 191.243 I   0.414 J  -5.475
G3 X 165.592 Y 190.924 I   1.795 J  -5.730
G3 X 164.836 Y 190.529 I   4.264 J  -9.089
G3 X 163.570 Y 189.682 I   5.760 J  -9.975
G3 X 163.307 Y 189.473 I   7.626 J  -9.907
G1 X 163.307 Y 177.857
G1 X 160.553 Y 177.857
F150
G1 Z   3.000
G0 Z  15.000 
M9 M5

(* SHAPE Nr: 12 *)
G0 X 182.508 Y 179.322
M3 M8
G0 Z   3.000 
G1 Z  -1.500
F400
G2 X 182.233 Y 179.659 I   5.076 J   4.437
G2 X 181.846 Y 180.227 I   5.291 J   4.019
G2 X 181.222 Y 181.507 I   6.562 J   3.990
G2 X 180.811 Y 182.911 I   9.049 J   3.412
G2 X 180.578 Y 184.498 I  12.440 J   2.640
G2 X 180.519 Y 185.914 I  17.035 J   1.416
G2 X 180.584 Y 187.247 I  13.630 J  -0.000
G2 X 180.841 Y 188.748 I  10.577 J  -1.039
G2 X 181.057 Y 189.484 I   8.513 J  -2.096
G2 X 181.105 Y 189.620 I   8.029 J  -2.741
G2 X 181.603 Y 190.751 I   9.504 J  -3.510
G2 X 182.321 Y 191.902 I   7.366 J  -3.797
G2 X 182.716 Y 192.388 I   5.955 J  -4.431
G2 X 183.461 Y 193.109 I   5.385 J  -4.818
G2 X 184.645 Y 193.901 I   4.253 J  -5.077
G2 X 185.031 Y 194.088 I   3.122 J  -5.971
G2 X 185.909 Y 194.407 I   2.881 J  -6.555
G2 X 187.287 Y 194.655 I   1.865 J  -6.400
G2 X 187.785 Y 194.674 I   0.497 J  -6.799
G2 X 188.813 Y 194.624 I  -0.000 J -10.731
G2 X 189.742 Y 194.477 I  -0.740 J  -7.688
G2 X 190.070 Y 194.395 I  -1.336 J  -6.033
G2 X 190.533 Y 194.257 I  -2.006 J  -7.581
G2 X 191.607 Y 193.833 I  -3.274 J  -9.870
G2 X 192.164 Y 193.560 I  -5.396 J -11.721
G1 X 192.164 Y 200.650
G1 X 194.918 Y 200.650
G1 X 194.918 Y 177.857
G1 X 192.164 Y 177.857
G1 X 192.164 Y 179.571
G2 X 191.099 Y 178.756 I  -7.329 J   8.481
G2 X 190.075 Y 178.157 I  -5.234 J   7.768
G2 X 189.689 Y 177.974 I  -3.916 J   7.783
G2 X 189.550 Y 177.915 I  -2.632 J   5.939
G2 X 188.332 Y 177.544 I  -2.487 J   5.984
G2 X 187.139 Y 177.407 I  -1.421 J   7.119
G2 X 186.891 Y 177.403 I  -0.248 J   7.869
G2 X 185.930 Y 177.469 I   0.000 J   7.062
G2 X 184.838 Y 177.729 I   0.784 J   5.705
G2 X 183.294 Y 178.574 I   1.705 J   4.948
G2 X 182.508 Y 179.322 I   3.690 J   4.660
F150
G1 Z  -3.000
F400
G2 X 182.233 Y 179.659 I   5.076 J   4.437
G2 X 181.846 Y 180.227 I   5.291 J   4.019
G2 X 181.222 Y 181.507 I   6.562 J   3.990
G2 X 180.811 Y 182.911 I   9.049 J   3.412
G2 X 180.578 Y 184.498 I  12.440 J   2.640
G2 X 180.519 Y 185.914 I  17.035 J   1.416
G2 X 180.584 Y 187.247 I  13.630 J  -0.000
G2 X 180.841 Y 188.748 I  10.577 J  -1.039
G2 X 181.057 Y 189.484 I   8.513 J  -2.096
G2 X 181.105 Y 189.620 I   8.029 J  -2.741
G2 X 181.603 Y 190.751 I   9.504 J  -3.510
G2 X 182.321 Y 191.902 I   7.366 J  -3.797
G2 X 182.716 Y 192.388 I   5.955 J  -4.431
G2 X 183.461 Y 193.109 I   5.385 J  -4.818
G2 X 184.645 Y 193.901 I   4.253 J  -5.077
G2 X 185.031 Y 194.088 I   3.122 J  -5.971
G2 X 185.909 Y 194.407 I   2.881 J  -6.555
G2 X 187.287 Y 194.655 I   1.865 J  -6.400
G2 X 187.785 Y 194.674 I   0.497 J  -6.799
G2 X 188.813 Y 194.624 I  -0.000 J -10.731
G2 X 189.742 Y 194.477 I  -0.740 J  -7.688
G2 X 190.070 Y 194.395 I  -1.336 J  -6.033
G2 X 190.533 Y 194.257 I  -2.006 J  -7.581
G2 X 191.607 Y 193.833 I  -3.274 J  -9.870
G2 X 192.164 Y 193.560 I  -5.396 J -11.721
G1 X 192.164 Y 200.650
G1 X 194.918 Y 200.650
G1 X 194.918 Y 177.857
G1 X 192.164 Y 177.857
G1 X 192.164 Y 179.571
G2 X 191.099 Y 178.756 I  -7.329 J   8.481
G2 X 190.075 Y 178.157 I  -5.234 J   7.768
G2 X 189.689 Y 177.974 I  -3.916 J   7.783
G2 X 189.550 Y 177.915 I  -2.632 J   5.939
G2 X 188.332 Y 177.544 I  -2.487 J   5.984
G2 X 187.139 Y 177.407 I  -1.421 J   7.119
G2 X 186.891 Y 177.403 I  -0.248 J   7.869
G2 X 185.930 Y 177.469 I   0.000 J   7.062
G2 X 184.838 Y 177.729 I   0.784 J   5.705
G2 X 183.294 Y 178.574 I   1.705 J   4.948
G2 X 182.508 Y 179.322 I   3.690 J   4.660
F150
G1 Z   3.000
G0 Z  15.000 
M9 M5

(* SHAPE Nr: 13 *)
G0 X 184.677 Y 181.122
M3 M8
G0 Z   3.000 
G1 Z  -1.500
F400
G2 X 184.357 Y 181.534 I   2.512 J   2.281
G2 X 184.176 Y 181.837 I   3.489 J   2.281
G2 X 183.827 Y 182.638 I   4.667 J   2.516
G2 X 183.563 Y 183.633 I   6.961 J   2.380
G2 X 183.404 Y 184.821 I  10.351 J   1.984
G2 X 183.361 Y 185.972 I  15.206 J   1.152
G2 X 183.384 Y 186.740 I  12.720 J  -0.000
G2 X 183.528 Y 187.925 I   9.879 J  -0.597
G2 X 183.836 Y 189.067 I   7.061 J  -1.293
G2 X 184.328 Y 190.087 I   5.139 J  -1.852
G2 X 184.650 Y 190.543 I   3.924 J  -2.426
G2 X 185.141 Y 191.065 I   3.485 J  -2.788
G2 X 185.826 Y 191.563 I   2.679 J  -2.961
G2 X 186.441 Y 191.851 I   2.007 J  -3.482
G2 X 187.428 Y 192.098 I   1.623 J  -4.399
G2 X 188.253 Y 192.154 I   0.825 J  -6.024
G2 X 188.603 Y 192.149 I  -0.000 J -11.047
G2 X 189.686 Y 192.052 I  -0.301 J  -9.493
G2 X 190.172 Y 191.964 I  -1.071 J  -7.274
G2 X 190.432 Y 191.902 I  -1.369 J  -6.319
G2 X 191.218 Y 191.658 I  -2.234 J  -8.584
G2 X 192.164 Y 191.275 I  -4.749 J -13.116
G1 X 192.164 Y 181.885
G2 X 191.470 Y 181.382 I  -6.500 J   8.241
G2 X 190.333 Y 180.729 I  -5.648 J   8.508
G2 X 189.923 Y 180.538 I  -4.548 J   9.235
G2 X 189.401 Y 180.339 I  -2.798 J   6.555
G2 X 188.300 Y 180.078 I  -1.960 J   5.817
G2 X 187.550 Y 180.025 I  -0.750 J   5.306
G2 X 187.148 Y 180.039 I   0.000 J   6.060
G2 X 186.377 Y 180.153 I   0.322 J   4.846
G2 X 185.561 Y 180.448 I   0.810 J   3.507
G2 X 184.677 Y 181.122 I   1.385 J   2.735
F150
G1 Z  -3.000
F400
G2 X 184.357 Y 181.534 I   2.512 J   2.281
G2 X 184.176 Y 181.837 I   3.489 J   2.281
G2 X 183.827 Y 182.638 I   4.667 J   2.516
G2 X 183.563 Y 183.633 I   6.961 J   2.380
G2 X 183.404 Y 184.821 I  10.351 J   1.984
G2 X 183.361 Y 185.972 I  15.206 J   1.152
G2 X 183.384 Y 186.740 I  12.720 J  -0.000
G2 X 183.528 Y 187.925 I   9.879 J  -0.597
G2 X 183.836 Y 189.067 I   7.061 J  -1.293
G2 X 184.328 Y 190.087 I   5.139 J  -1.852
G2 X 184.650 Y 190.543 I   3.924 J  -2.426
G2 X 185.141 Y 191.065 I   3.485 J  -2.788
G2 X 185.826 Y 191.563 I   2.679 J  -2.961
G2 X 186.441 Y 191.851 I   2.007 J  -3.482
G2 X 187.428 Y 192.098 I   1.623 J  -4.399
G2 X 188.253 Y 192.154 I   0.825 J  -6.024
G2 X 188.603 Y 192.149 I  -0.000 J -11.047
G2 X 189.686 Y 192.052 I  -0.301 J  -9.493
G2 X 190.172 Y 191.964 I  -1.071 J  -7.274
G2 X 190.432 Y 191.902 I  -1.369 J  -6.319
G2 X 191.218 Y 191.658 I  -2.234 J  -8.584
G2 X 192.164 Y 191.275 I  -4.749 J -13.116
G1 X 192.164 Y 181.885
G2 X 191.470 Y 181.382 I  -6.500 J   8.241
G2 X 190.333 Y 180.729 I  -5.648 J   8.508
G2 X 189.923 Y 180.538 I  -4.548 J   9.235
G2 X 189.401 Y 180.339 I  -2.798 J   6.555
G2 X 188.300 Y 180.078 I  -1.960 J   5.817
G2 X 187.550 Y 180.025 I  -0.750 J   5.306
G2 X 187.148 Y 180.039 I   0.000 J   6.060
G2 X 186.377 Y 180.153 I   0.322 J   4.846
G2 X 185.561 Y 180.448 I   0.810 J   3.507
G2 X 184.677 Y 181.122 I   1.385 J   2.735
F150
G1 Z   3.000
G0 Z  15.000 
M9 M5
G0 X   0.000 Y   0.000
M2 (Program end)